src/status/24/keepassx-locked.svg

<svg width="24" height="24" viewBox="0 0 24 24" xmlns="http://www.w3.org/2000/svg">
 <path d="m21.980469 22.515625v-1.300781l-19.960938-0.027344v1.292969c0 0.710937 0.015625 1.308593 0.035157 1.328125 0.019531 0.019531 4.511718 0.03125 9.980468 0.023437l9.945313-0.011719zm-11.507813-3.136719v-1.328125h-8.453125v2.65625h8.453125zm11.507813 0v-1.300781l-8.265625-0.027344v2.660157l8.265625-0.027344zm-11.519531-3.121094 0.011718-1.34375-8.425781 0.027344-0.015625 1.273438c-0.007812 0.703125 0 1.304687 0.011719 1.34375 0.023437 0.054687 0.859375 0.066406 4.214843 0.054687l4.1875-0.015625zm11.519531 0.011719v-1.328125l-8.265625-0.027344v1.320313c0 0.726563 0.015625 1.335937 0.035156 1.355469 0.019531 0.019531 1.878906 0.03125 4.132812 0.023437l4.097657-0.015625zm0-3.136719v-1.328124h-19.933594l-0.015625 1.277343c-0.007812 0.699219 0 1.304688 0.011719 1.339844 0.023437 0.054687 1.964843 0.066406 9.980469 0.054687l9.957031-0.011718zm-15.175781-3.402343c0-1.757813 0.035156-2.089844 0.300781-2.816407 0.59375-1.613281 1.933593-2.824218 3.660156-3.296874 0.53125-0.148438 1.960937-0.148438 2.496094 0 1.476562 0.40625 2.683593 1.351562 3.371093 2.644531 0.503907 0.941406 0.589844 1.410156 0.625 3.429687l0.03125 1.664063h3.292969l-0.023437-1.902344c-0.019532-1.699219-0.035156-1.957031-0.140625-2.425781-0.382813-1.746094-1.125-3.144532-2.300781-4.335938-1.238282-1.257812-2.644532-2.019531-4.453126-2.40625-0.480468-0.101562-0.71875-0.121094-1.652343-0.121094-1.167969 0-1.695313 0.074219-2.605469 0.367188-2.613281 0.84375-4.660156 2.867188-5.53125 5.464844-0.351562 1.042968-0.378906 1.269531-0.40625 3.402344l-0.023438 1.957031h3.359376z" fill="rgb(18.039216%, 20.392157%, 25.098041%)"/>
 <path d="m20.722656 15.269531c-1.207031 0-2.179687 0.996094-2.179687 2.222657v1.054687c-0.601563 0-1.089844 0.484375-1.089844 1.089844v3.277343c0 0.601563 0.484375 1.089844 1.089844 1.089844h4.363281c0.601562 0 1.089844-0.484375 1.089844-1.089844v-3.277343c0-0.601563-0.484375-1.089844-1.089844-1.089844v-1.054687c0-1.226563-0.972656-2.222657-2.1875-2.222657m0 1.097657c0.609375 0 1.097656 0.480468 1.097656 1.089843v1.089844h-2.1875v-1.089844c0-0.609375 0.488282-1.089843 1.09375-1.089843z" fill="rgb(92.156863%, 79.607844%, 54.509807%)"/>
</svg>

<svg xmlns="http://www.w3.org/2000/svg" xmlns:xlink="http://www.w3.org/1999/xlink" width="24" height="24" viewBox="0 0 24 24">
<path fill-rule="nonzero" fill="rgb(18.039216%, 20.392157%, 25.098041%)" fill-opacity="1" d="M 21.980469 22.515625 L 21.980469 21.214844 L 2.019531 21.1875 L 2.019531 22.480469 C 2.019531 23.191406 2.035156 23.789062 2.054688 23.808594 C 2.074219 23.828125 6.566406 23.839844 12.035156 23.832031 L 21.980469 23.820312 Z M 10.472656 19.378906 L 10.472656 18.050781 L 2.019531 18.050781 L 2.019531 20.707031 L 10.472656 20.707031 Z M 21.980469 19.378906 L 21.980469 18.078125 L 13.714844 18.050781 L 13.714844 20.710938 L 21.980469 20.683594 Z M 10.460938 16.257812 L 10.472656 14.914062 L 2.046875 14.941406 L 2.03125 16.214844 C 2.023438 16.917969 2.03125 17.519531 2.042969 17.558594 C 2.066406 17.613281 2.902344 17.625 6.257812 17.613281 L 10.445312 17.597656 Z M 21.980469 16.269531 L 21.980469 14.941406 L 13.714844 14.914062 L 13.714844 16.234375 C 13.714844 16.960938 13.730469 17.570312 13.75 17.589844 C 13.769531 17.609375 15.628906 17.621094 17.882812 17.613281 L 21.980469 17.597656 Z M 21.980469 13.132812 L 21.980469 11.804688 L 2.046875 11.804688 L 2.03125 13.082031 C 2.023438 13.78125 2.03125 14.386719 2.042969 14.421875 C 2.066406 14.476562 4.007812 14.488281 12.023438 14.476562 L 21.980469 14.464844 Z M 6.804688 9.730469 C 6.804688 7.972656 6.839844 7.640625 7.105469 6.914062 C 7.699219 5.300781 9.039062 4.089844 10.765625 3.617188 C 11.296875 3.46875 12.726562 3.46875 13.261719 3.617188 C 14.738281 4.023438 15.945312 4.96875 16.632812 6.261719 C 17.136719 7.203125 17.222656 7.671875 17.257812 9.691406 L 17.289062 11.355469 L 20.582031 11.355469 L 20.558594 9.453125 C 20.539062 7.753906 20.523438 7.496094 20.417969 7.027344 C 20.035156 5.28125 19.292969 3.882812 18.117188 2.691406 C 16.878906 1.433594 15.472656 0.671875 13.664062 0.285156 C 13.183594 0.183594 12.945312 0.164062 12.011719 0.164062 C 10.84375 0.164062 10.316406 0.238281 9.40625 0.53125 C 6.792969 1.375 4.746094 3.398438 3.875 5.996094 C 3.523438 7.039062 3.496094 7.265625 3.46875 9.398438 L 3.445312 11.355469 L 6.804688 11.355469 Z M 6.804688 9.730469 "/>
<path fill-rule="nonzero" fill="rgb(92.156863%, 79.607844%, 54.509807%)" fill-opacity="1" d="M 20.722656 15.269531 C 19.515625 15.269531 18.542969 16.265625 18.542969 17.492188 L 18.542969 18.546875 C 17.941406 18.546875 17.453125 19.03125 17.453125 19.636719 L 17.453125 22.914062 C 17.453125 23.515625 17.9375 24.003906 18.542969 24.003906 L 22.90625 24.003906 C 23.507812 24.003906 23.996094 23.519531 23.996094 22.914062 L 23.996094 19.636719 C 23.996094 19.035156 23.511719 18.546875 22.90625 18.546875 L 22.90625 17.492188 C 22.90625 16.265625 21.933594 15.269531 20.71875 15.269531 M 20.71875 16.367188 C 21.328125 16.367188 21.816406 16.847656 21.816406 17.457031 L 21.816406 18.546875 L 19.628906 18.546875 L 19.628906 17.457031 C 19.628906 16.847656 20.117188 16.367188 20.722656 16.367188 Z M 20.71875 16.367188 "/>
</svg>
